X:545
T: Haste to the Wedding
M: 6/8
L: 1/8
R: Jig
K: D
A|AFA Agf|ede fdB|AFA AGF|GFG EFG|
AFA Agf|ede fdB|ABA faf|ded d2 :|
a|afa afa|bgb bgb|afa agf|gfg efg|
a2z f2z|ede fdB|ABA faf|ded d2 :|
